Numix/16/status/indicator-keyboard-Fr-6.svg

<?xml version="1.0" encoding="UTF-8" standalone="no"?>
<svg
   xmlns:dc="http://purl.org/dc/elements/1.1/"
   xmlns:cc="http://creativecommons.org/ns#"
   xmlns:rdf="http://www.w3.org/1999/02/22-rdf-syntax-ns#"
   xmlns:svg="http://www.w3.org/2000/svg"
   xmlns="http://www.w3.org/2000/svg"
   xmlns:sodipodi="http://sodipodi.sourceforge.net/DTD/sodipodi-0.dtd"
   xmlns:inkscape="http://www.inkscape.org/namespaces/inkscape"
   viewBox="0 0 16 16"
   id="svg2"
   version="1.1"
   inkscape:version="0.91 r13725"
   sodipodi:docname="indicator-keyboard-Fr-6.svg">
  <metadata
     id="metadata14">
    <rdf:RDF>
      <cc:Work
         rdf:about="">
        <dc:format>image/svg+xml</dc:format>
        <dc:type
           rdf:resource="http://purl.org/dc/dcmitype/StillImage" />
      </cc:Work>
    </rdf:RDF>
  </metadata>
  <defs
     id="defs12" />
  <sodipodi:namedview
     pagecolor="#ffffff"
     bordercolor="#666666"
     borderopacity="1"
     objecttolerance="10"
     gridtolerance="10"
     guidetolerance="10"
     inkscape:pageopacity="0"
     inkscape:pageshadow="2"
     inkscape:window-width="640"
     inkscape:window-height="480"
     id="namedview10"
     showgrid="false"
     inkscape:zoom="14.75"
     inkscape:cx="8"
     inkscape:cy="8"
     inkscape:window-x="65"
     inkscape:window-y="24"
     inkscape:window-maximized="0"
     inkscape:current-layer="svg2" />
  <path
     style="fill:#ececec;fill-opacity:1"
     d="M 1.5996094 0 C 0.71320937 2.9605947e-16 0 0.71320937 0 1.5996094 L 0 14.400391 C 2.9605947e-16 15.286791 0.71320937 16 1.5996094 16 L 14.400391 16 C 15.286791 16 16 15.286791 16 14.400391 L 16 1.5996094 C 16 0.71320937 15.286791 0 14.400391 0 L 1.5996094 0 z M 2.9941406 4.859375 L 6.5488281 4.859375 L 6.5488281 5.390625 L 3.6054688 5.390625 L 3.6054688 7.5859375 L 6.2148438 7.5859375 L 6.2148438 8.1171875 L 3.6054688 8.1171875 L 3.6054688 11.095703 L 2.9941406 11.095703 L 2.9941406 4.859375 z M 9.0585938 6.3535156 C 9.2505938 6.3535156 9.4316094 6.3684375 9.5996094 6.3984375 C 9.7736094 6.4284375 9.8929844 6.4582812 9.9589844 6.4882812 L 9.8417969 6.9921875 C 9.7937969 6.9681875 9.6949219 6.9439219 9.5449219 6.9199219 C 9.4009219 6.8899219 9.20875 6.875 8.96875 6.875 C 8.71675 6.875 8.5134219 6.8936875 8.3574219 6.9296875 C 8.2074219 6.9656875 8.1085469 6.9955312 8.0605469 7.0195312 L 8.0605469 11.095703 L 7.4746094 11.095703 L 7.4746094 6.6582031 C 7.6246094 6.5922031 7.8317031 6.5269375 8.0957031 6.4609375 C 8.3597031 6.3889375 8.6805938 6.3535156 9.0585938 6.3535156 z M 12.738281 8.8242188 L 12.761719 9.1464844 C 12.523819 9.1620844 12.302409 9.1993125 12.099609 9.2578125 C 11.900709 9.3124125 11.724359 9.4005844 11.568359 9.5214844 C 11.412359 9.6384843 11.281081 9.7893625 11.175781 9.9765625 C 11.070481 10.163763 10.997984 10.394969 10.958984 10.667969 C 11.064284 10.613369 11.191644 10.566344 11.339844 10.527344 C 11.488044 10.484444 11.6448 10.462891 11.8125 10.462891 C 12.0309 10.462891 12.217041 10.498159 12.369141 10.568359 C 12.521241 10.634659 12.644681 10.722838 12.738281 10.835938 C 12.831881 10.949038 12.898506 11.080316 12.941406 11.228516 C 12.984306 11.376716 13.005859 11.533466 13.005859 11.697266 C 13.005859 11.849366 12.982347 12.000244 12.935547 12.152344 C 12.888747 12.304444 12.816244 12.443559 12.714844 12.568359 C 12.617344 12.689259 12.491944 12.789187 12.339844 12.867188 C 12.191644 12.945188 12.013341 12.984375 11.806641 12.984375 C 11.381541 12.984375 11.058237 12.835463 10.835938 12.539062 C 10.617537 12.238762 10.507813 11.821409 10.507812 11.287109 C 10.507812 10.495409 10.697872 9.8958281 11.076172 9.4863281 C 11.458372 9.0768281 12.012881 8.8554188 12.738281 8.8242188 z M 11.777344 10.794922 C 11.597944 10.794922 11.441188 10.816475 11.304688 10.859375 C 11.172087 10.898375 11.046688 10.9454 10.929688 11 C 10.921888 11.0663 10.917969 11.119203 10.917969 11.158203 L 10.917969 11.292969 C 10.917969 11.476269 10.929725 11.650653 10.953125 11.814453 C 10.980425 11.978253 11.02745 12.121294 11.09375 12.246094 C 11.16395 12.370894 11.256041 12.470822 11.369141 12.544922 C 11.482241 12.615122 11.625281 12.650391 11.800781 12.650391 C 11.945081 12.650391 12.068522 12.624919 12.169922 12.574219 C 12.271322 12.519619 12.353616 12.449081 12.416016 12.363281 C 12.478416 12.277481 12.523481 12.177553 12.550781 12.064453 C 12.581981 11.951353 12.597656 11.833784 12.597656 11.708984 C 12.597656 11.396984 12.527119 11.165778 12.386719 11.017578 C 12.250219 10.869378 12.046444 10.794922 11.777344 10.794922 z "
     id="path4" />
</svg>

<svg xmlns="http://www.w3.org/2000/svg" viewBox="0 0 16 16">
 <path d="m 1.6 0 c -0.886 0 -1.6 0.713 -1.6 1.6 l 0 12.801 c 0 0.886 0.713 1.6 1.6 1.6 l 12.801 0 c 0.886 0 1.6 -0.713 1.6 -1.6 l 0 -12.801 c 0 -0.886 -0.713 -1.6 -1.6 -1.6 l -12.801 0 z m 1.395 4.859 l 3.555 0 l 0 0.531 l -2.943 0 l 0 2.195 l 2.609 0 l 0 0.531 l -2.609 0 l 0 2.979 l -0.611 0 l 0 -6.236 z m 6.06 1.494 c 0.192 0 0.373 0.015 0.541 0.045 c 0.174 0.03 0.293 0.06 0.359 0.09 l -0.117 0.504 c -0.048 -0.024 -0.147 -0.048 -0.297 -0.072 c -0.144 -0.03 -0.336 -0.045 -0.576 -0.045 c -0.252 0 -0.455 0.019 -0.611 0.055 c -0.15 0.036 -0.249 0.066 -0.297 0.09 l 0 4.076 l -0.586 0 l 0 -4.437 c 0.15 -0.066 0.357 -0.131 0.621 -0.197 c 0.264 -0.072 0.585 -0.107 0.963 -0.107 z m 3.68 2.471 l 0.023 0.322 c -0.238 0.016 -0.459 0.053 -0.662 0.111 c -0.199 0.055 -0.375 0.143 -0.531 0.264 c -0.156 0.117 -0.287 0.268 -0.393 0.455 c -0.105 0.187 -0.178 0.418 -0.217 0.691 c 0.105 -0.055 0.233 -0.102 0.381 -0.141 c 0.148 -0.043 0.305 -0.064 0.473 -0.064 c 0.218 0 0.405 0.035 0.557 0.105 c 0.152 0.066 0.276 0.154 0.369 0.268 c 0.094 0.113 0.16 0.244 0.203 0.393 c 0.043 0.148 0.064 0.305 0.064 0.469 c 0 0.152 -0.024 0.303 -0.07 0.455 c -0.047 0.152 -0.119 0.291 -0.221 0.416 c -0.098 0.121 -0.223 0.221 -0.375 0.299 c -0.148 0.078 -0.327 0.117 -0.533 0.117 c -0.425 0 -0.748 -0.149 -0.971 -0.445 c -0.218 -0.3 -0.328 -0.718 -0.328 -1.252 c 0 -0.792 0.19 -1.391 0.568 -1.801 c 0.382 -0.409 0.937 -0.631 1.662 -0.662 z m -0.961 1.971 c -0.179 0 -0.336 0.022 -0.473 0.064 c -0.133 0.039 -0.258 0.086 -0.375 0.141 c -0.008 0.066 -0.012 0.119 -0.012 0.158 l 0 0.135 c 0 0.183 0.012 0.358 0.035 0.521 c 0.027 0.164 0.074 0.307 0.141 0.432 c 0.07 0.125 0.162 0.225 0.275 0.299 c 0.113 0.07 0.256 0.105 0.432 0.105 c 0.144 0 0.268 -0.025 0.369 -0.076 c 0.101 -0.055 0.184 -0.125 0.246 -0.211 c 0.062 -0.086 0.107 -0.186 0.135 -0.299 c 0.031 -0.113 0.047 -0.231 0.047 -0.355 c 0 -0.312 -0.071 -0.543 -0.211 -0.691 c -0.136 -0.148 -0.34 -0.223 -0.609 -0.223 z" style="fill:#ececec;fill-opacity:1"/>
</svg>
